src/resources/icons/delete.svg

<svg viewBox="0 0 512 512" xmlns="http://www.w3.org/2000/svg"><g data-name="1"><path d="M356.65 450H171.47a41 41 0 0 1-40.9-40.9V120.66a15 15 0 0 1 15-15h237a15 15 0 0 1 15 15V409.1a41 41 0 0 1-40.92 40.9ZM160.57 135.66V409.1a10.91 10.91 0 0 0 10.9 10.9h185.18a10.91 10.91 0 0 0 10.91-10.9V135.66Z"/><path d="M327.06 135.66h-126a15 15 0 0 1-15-15V93.4a44.79 44.79 0 0 1 44.74-44.73h66.52a44.79 44.79 0 0 1 44.74 44.73v27.26a15 15 0 0 1-15 15Zm-111-30h96V93.4a14.75 14.75 0 0 0-14.74-14.73H230.8a14.75 14.75 0 0 0-14.73 14.73ZM264.06 392.58a15 15 0 0 1-15-15V178.09a15 15 0 1 1 30 0v199.49a15 15 0 0 1-15 15ZM209.9 392.58a15 15 0 0 1-15-15V178.09a15 15 0 0 1 30 0v199.49a15 15 0 0 1-15 15ZM318.23 392.58a15 15 0 0 1-15-15V178.09a15 15 0 0 1 30 0v199.49a15 15 0 0 1-15 15Z"/><path d="M405.81 135.66H122.32a15 15 0 0 1 0-30h283.49a15 15 0 0 1 0 30Z"/></g></svg>

<?xml version="1.0" ?><svg viewBox="0 0 512 512" xmlns="http://www.w3.org/2000/svg"><title/><g data-name="1" id="_1"><path d="M356.65,450H171.47a41,41,0,0,1-40.9-40.9V120.66a15,15,0,0,1,15-15h237a15,15,0,0,1,15,15V409.1A41,41,0,0,1,356.65,450ZM160.57,135.66V409.1a10.91,10.91,0,0,0,10.9,10.9H356.65a10.91,10.91,0,0,0,10.91-10.9V135.66Z"/><path d="M327.06,135.66h-126a15,15,0,0,1-15-15V93.4A44.79,44.79,0,0,1,230.8,48.67h66.52A44.79,44.79,0,0,1,342.06,93.4v27.26A15,15,0,0,1,327.06,135.66Zm-111-30h96V93.4a14.75,14.75,0,0,0-14.74-14.73H230.8A14.75,14.75,0,0,0,216.07,93.4Z"/><path d="M264.06,392.58a15,15,0,0,1-15-15V178.09a15,15,0,1,1,30,0V377.58A15,15,0,0,1,264.06,392.58Z"/><path d="M209.9,392.58a15,15,0,0,1-15-15V178.09a15,15,0,0,1,30,0V377.58A15,15,0,0,1,209.9,392.58Z"/><path d="M318.23,392.58a15,15,0,0,1-15-15V178.09a15,15,0,0,1,30,0V377.58A15,15,0,0,1,318.23,392.58Z"/><path d="M405.81,135.66H122.32a15,15,0,0,1,0-30H405.81a15,15,0,0,1,0,30Z"/></g></svg>
